X:294
T:Limerick Tinker, The
R:jig
H:Also in Ador, #301. See also "The Gold Ring", #104
Z:id:hn-jig-294
M:6/8
K:Gdor
G2A BAG|AGF GFD|G2A Bdd|cAA F2D|
G2A BAG|AGF Gde|fag f2d|cAF F2A:|
|:ded dcA|d2G GAc|ded dcA|cAF FAc|
ded dcA|d2G Gde|fag f2d|cAF F2A:|
|:B2G A2G|d2G G2A|B2G A2G|cAG FGA|
BAG AGF|GFD FGA|fag fed|cAF F2A:|

